X: 1
T: Bridget's
M: 3/4
L: 1/8
R: mazurka
K: Dmaj
A>B|:A>F D2 A>B|A>F D2 d>e|f2 f>e d>A|E4 A>B|
A>F D>F A>B|A>F D2 d>e|f2 f>e d>c|1d4 A>B:|2d3 e f>g||
|:a2 a>g f>e|g2 g>f e>d|e>f g>d B>d|A>B A>F D>d|
a2 a>g f>e|g2 g>f e>d|e>f e>c A>c|1d3 e f>g:|2d4 ||
